X:16700
T:The First Month of Summer
R:Reel
S:
H:
N:
D:Buttons And Bows
Z:Adrian Scahill
M:4/4
L:1/8
K:A
AFF2 E2CE|A,ECE c3B|AFF2 EA,A,2|CEAB c3B:||
Acc2 Acfc|eAce a3c|ecc2 Acec|(3dcB cA Bcdf|\
ecc2 Acfc|eAce f3g|(3agf (3gfe fedc|(3dcB (3cBA BdcB||
